.local/share/icons/Gruvbox-Plus-Dark/actions/16/font-select.svg

<svg xmlns="http://www.w3.org/2000/svg" width="16" height="16" viewBox="0 0 16 16">
 <defs>
  <style id="current-color-scheme" type="text/css">
   .ColorScheme-Text { color:#ebdbb2; } .ColorScheme-Highlight { color:#458588; }
  </style>
 </defs>
 <path style="fill:currentColor" class="ColorScheme-Text" d="M 6 3 L 5.9921875 5 L 8.9140625 5.0117188 L 8.9160156 5.0117188 C 8.8608156 5.0117188 9 5.17107 9 5.09375 L 9 6.0175781 L 7.9960938 6.0175781 C 6.2801937 6.0175781 4.9660063 7.1430531 4.9414062 8.5019531 C 4.9291063 9.1814031 5.2472344 9.8649188 5.8027344 10.324219 C 6.3582344 10.783489 7.1180937 11.023438 7.9960938 11.023438 L 11 11.023438 L 11 5.09375 C 11 3.92255 10.112866 3.0117188 8.9160156 3.0117188 L 6.0058594 3 L 6 3 z M -0.00390625 5 L -0.00390625 11 L 3.9960938 8 L -0.00390625 5 z M 15.996094 5 L 11.996094 8 L 15.996094 11 L 15.996094 5 z M 7.9960938 8.0175781 L 9 8.0175781 L 9 9.0234375 L 7.9960938 9.0234375 C 7.4766838 9.0234375 7.2023019 8.88554 7.0761719 8.78125 C 6.9500319 8.67696 6.9401062 8.6090694 6.9414062 8.5371094 C 6.9444063 8.3931794 7.0262937 8.0175781 7.9960938 8.0175781 z"/>
</svg>

<svg width="16" height="16" version="1.1" xmlns="http://www.w3.org/2000/svg">
  <defs>
    <style id="current-color-scheme" type="text/css">.ColorScheme-Text { color:#ebdbb2; } .ColorScheme-Highlight { color:#458588; }</style>
  </defs>
  <path class="ColorScheme-Text" d="m6 3-0.00781 2h3.008v1h-1c-3 0-3 2.464-3 2.464s0 2.536 3 2.536h3v-6c0-2-2-2-2-2zm-6.004 2v6l4-3zm16 0-4 3 4 3zm-7.996 3h1v1h-1c-0.9961 0-1-0.4863-1-0.4863s0.003906-0.5137 1-0.5137z" fill="currentColor"/>
</svg>
